packages/Snapp/src/CircleDownIcon/index.svg

<?xml version="1.0" encoding="UTF-8"?>
<svg width="24px" height="24px" viewBox="0 0 24 24" version="1.1" xmlns="http://www.w3.org/2000/svg" xmlns:xlink="http://www.w3.org/1999/xlink">
    <title>Icons/24/CircleDown</title>
    <g id="Icons/24/CircleDown" stroke="none" stroke-width="1" fill="none" fill-rule="evenodd">
        <rect id="Container" fill-opacity="0" fill="#D8D8D8" fill-rule="nonzero" x="0" y="0" width="24" height="24"></rect>
        <path d="M4.92893219,19.0710678 C1.02368927,15.1658249 1.02368927,8.83417511 4.92893219,4.92893219 C8.83417511,1.02368927 15.1658249,1.02368927 19.0710678,4.92893219 C22.9763107,8.83417511 22.9763107,15.1658249 19.0710678,19.0710678 C15.1658249,22.9763107 8.83417511,22.9763107 4.92893219,19.0710678 Z M6.34314575,17.6568542 C9.46734008,20.7810486 14.5326599,20.7810486 17.6568542,17.6568542 C20.7810486,14.5326599 20.7810486,9.46734008 17.6568542,6.34314575 C14.5326599,3.21895142 9.46734008,3.21895142 6.34314575,6.34314575 C3.21895142,9.46734008 3.21895142,14.5326599 6.34314575,17.6568542 Z M15.5355339,10.2928932 C15.9260582,9.90236893 16.5592232,9.90236893 16.9497475,10.2928932 C17.3402718,10.6834175 17.3402718,11.3165825 16.9497475,11.7071068 L12.7071068,15.9497475 C12.3165825,16.3402718 11.6834175,16.3402718 11.2928932,15.9497475 L7.05025253,11.7071068 C6.65972824,11.3165825 6.65972824,10.6834175 7.05025253,10.2928932 C7.44077682,9.90236893 8.0739418,9.90236893 8.46446609,10.2928932 L12,13.8284271 L15.5355339,10.2928932 Z" id="Shape" fill="#404040" fill-rule="nonzero"></path>
    </g>
</svg>

<svg viewBox="0 0 24 24" xmlns="http://www.w3.org/2000/svg" fill="currentColor" focusable="false">
  <path d="M4.929 19.071c-3.905-3.905-3.905-10.237 0-14.142 3.905-3.905 10.237-3.905 14.142 0 3.905 3.905 3.905 10.237 0 14.142-3.905 3.905-10.237 3.905-14.142 0zm1.414-1.414A8 8 0 1017.657 6.343 8 8 0 006.343 17.657zm9.193-7.364a1 1 0 011.414 1.414l-4.243 4.243a1 1 0 01-1.414 0L7.05 11.707a1 1 0 011.414-1.414L12 13.828l3.536-3.535z" fill="none"/>
</svg>
